X:1
T:Why I Sing
T:Charles Hutchinson Gabriel
T:Why I Sing
T:Public Domain
T:Public Domain
C:Charles Hutchinson Gabriel
Z:Public Domain
%%score ( 1 2 ) ( 3 4 )
L:1/8
M:4/4
K:G
V:1 treble 
V:2 treble 
V:3 bass 
V:4 bass 
V:1
 ([B,G][CA]) | [DB]3 [DB] ([Ec][DB])(AG) | [EG]4 [Ec]2 (EG) | [B,D]2 [B,G]2 [DB]2 [Dd]2 | %4
w: 1.~I *|sing be- cause * I *|Him— Be- cause *|earth He came All|
w: 2.~I *|sing be- cause * I *|Him; From sin *|set me free; He|
w: 3.~I *|sing be- cause * I *|Him, For keep- *|me in peace; Un-|
 [DA]6 [Dc]2 | [DB]3 [DB] ([Ec][DB])(AG) | [EG]4 [Ec]2 (EG) | [B,D]2 [B,G]2 (BA)(GF) | [DG]6 || %9
w: those to|save who trust * Hsim, *|end- less death *|shame. I sing * be- *|love|
w: taught my|soul to praise * Him— *|it with mel- *|dy. * * * * *||
w: til my|eyes be- hold * Him, *|song shall ne- *|cease. * * * * *||
"^Refrain" [Gd]2 | (BAGA d)d[GB][GB] | (AGFG) [Ad]2 [Fd]2 | [Gd]2 (AG) (FF)(EG) | %13
w: Him,|Be- * * * * cause He died|For * * * this I|a- dore * Hsim * Through *|
w: ||||
w: ||||
 (F2 F2 [Gd]2) [Dc]2 | [DB]3 [DB] ([Ec][DB])(AG) | [EG]4 [Ec]2 (EG) | [B,D]2 [B,G]2 (BA)(GF) | %17
w: ni- * * ty.||||
w: ||||
w: ||||
 [DG]6 |] %18
w: |
w: |
w: |
V:2
 x2 | x6 D2 | x6 C2 | x8 | x8 | x6 D2 | x6 C2 | x4 D2 D2 | x6 || x2 | d4- B2 x2 | d4 x4 | %12
w: |love|to|||From|and|cause I|||for me;|shall|
w: |love|He|||Filled|o-||||||
w: |love|ing|||My|ver||||||
 x2 d2 d2 ^c2 | d4- x4 | x6 D2 | x6 C2 | x4 D2 D2 | x6 |] %18
w: all e- ter-||||||
w: ||||||
w: ||||||
V:3
 [G,,G,]2 | [G,,G,]3 [G,,G,] [G,,G,]2 ([A,,F,][B,,G,]) | [C,C]4 [C,G,]2 (C,E,) | %3
w: ~|~ ~ ~ ~ *|~ ~ ~ *|
 G,2 G,2 G,2 [B,,G,]2 | [D,F,]6 [D,F,]2 | [G,,G,]3 [G,,G,] [G,,G,]2 ([A,,F,][B,,G,]) | %6
w: ~ ~ ~ ~|~ ~|~ ~ ~ ~ *|
 [C,C]4 [C,G,]2 (C,E,) | G,2 G,2 (G,C)(B,A,) | [G,,B,]6 || [G,B,]2 | %10
w: ~ ~ ~ *|I sing be- * cause *|cause|He|
 [G,D][G,C][G,B,][G,C] [G,D]2 [G,D][G,D] | [D,C][D,B,][D,A,][D,B,] [D,C]2 [D,A,]2 | %12
w: died for me; I love Him be-|cause He died for me, for|
 [G,B,]2 [F,C][G,B,] A,A,[A,,A,][A,,A,] | [D,A,]2 [C,A,]2 [B,,G,]2 [A,,F,]2 | %14
w: me; * * * * * *||
 [G,,G,]3 [A,,G,] [A,,G,]2 ([A,,F,][B,,G,]) | [C,C]4 [C,G,]2 (C,E,) | G,2 G,2 (G,C)(B,A,) | %17
w: |||
 [G,,B,]6 |] %18
w: |
V:4
 x2 | x8 | x6 G,2 | G,2 G,2 G,2 x2 | x8 | x8 | x6 G,2 | G,2 G,2 D,2 D,2 | x6 || x2 | x8 | x8 | %12
w: ||~|~ ~ ~|||~|I love Him— Be-|||||
 x4 A,A, x2 | x8 | x8 | x6 G,2 | G,2 G,2 D,2 D,2 | x6 |] %18
w: ||||||

